src/img/mail.svg

<svg width="100" height="100" viewBox="0 0 100 100" fill="none" xmlns="http://www.w3.org/2000/svg">
<circle cx="50" cy="50" r="47.5" fill="#3E9CDC" stroke="#286690" stroke-width="5"/>
<path d="M66.7952 62.1071C66.7952 62.4487 66.4938 62.75 66.1523 62.75H36.5809C36.2393 62.75 35.938 62.4487 35.938 62.1071V46.6786C36.3599 47.1607 36.8219 47.6027 37.3242 48.0045C40.1969 50.2143 43.0898 52.4643 45.8822 54.7946C47.3889 56.0603 49.2572 57.6071 51.3465 57.6071H51.3666H51.3867C53.476 57.6071 55.3443 56.0603 56.851 54.7946C59.6434 52.4643 62.5362 50.2143 65.409 48.0045C65.9112 47.6027 66.3733 47.1607 66.7952 46.6786V62.1071ZM66.7952 40.9933C66.7952 42.7009 65.1478 44.9308 63.842 45.9553C61.1501 48.0647 58.4581 50.1942 55.7862 52.3237C54.7215 53.1875 52.7929 55.0357 51.3867 55.0357H51.3666H51.3465C49.9402 55.0357 48.0117 53.1875 46.9469 52.3237C44.2751 50.1942 41.5831 48.0647 38.8911 45.9553C37.0831 44.529 35.938 42.5402 35.938 40.25C35.938 39.9085 36.2393 39.6071 36.5809 39.6071H66.1523C66.9157 39.6071 66.7952 40.4911 66.7952 40.9933ZM69.3666 40.25C69.3666 38.4821 67.9202 37.0357 66.1523 37.0357H36.5809C34.813 37.0357 33.3666 38.4821 33.3666 40.25V62.1071C33.3666 63.875 34.813 65.3214 36.5809 65.3214H66.1523C67.9202 65.3214 69.3666 63.875 69.3666 62.1071V40.25Z" fill="white"/>
</svg>

<svg width="100" height="100" fill="none" xmlns="http://www.w3.org/2000/svg"><circle cx="50" cy="50" r="47.5" fill="#3E9CDC" stroke="#286690" stroke-width="5"/><path d="M66.795 62.107a.661.661 0 01-.643.643H36.581a.661.661 0 01-.643-.643V46.68c.422.482.884.924 1.386 1.325 2.873 2.21 5.766 4.46 8.558 6.79 1.507 1.266 3.375 2.813 5.465 2.813h.04c2.089 0 3.957-1.547 5.464-2.812 2.792-2.33 5.685-4.58 8.558-6.79.502-.402.964-.844 1.386-1.326v15.428zm0-21.114c0 1.708-1.647 3.938-2.953 4.962-2.692 2.11-5.384 4.24-8.056 6.369-1.065.864-2.993 2.712-4.4 2.712h-.04c-1.406 0-3.334-1.849-4.4-2.712-2.67-2.13-5.363-4.26-8.055-6.369-1.808-1.426-2.953-3.415-2.953-5.705 0-.342.301-.643.643-.643h29.571c.764 0 .643.884.643 1.386zm2.572-.743a3.224 3.224 0 00-3.215-3.214H36.581a3.224 3.224 0 00-3.214 3.214v21.857a3.224 3.224 0 003.214 3.214h29.571a3.224 3.224 0 003.215-3.214V40.25z" fill="#fff"/></svg>
